; generated by PrusaSlicer 2.8.0 on 2025-05-19 at 22:17:29 UTC

; 

; external perimeters extrusion width = 0.45mm
; perimeters extrusion width = 0.45mm
; infill extrusion width = 0.45mm
; solid infill extrusion width = 0.45mm
; top infill extrusion width = 0.40mm
; first layer extrusion width = 0.42mm

M190 S60 ; set bed temperature and wait for it to be reached
M104 S205 ; set temperature
;TYPE:Custom
G28 ; home all axes
G1 Z5 F5000 ; lift nozzle
M109 S205 ; set temperature and wait for it to be reached
G21 ; set units to millimeters
G90 ; use absolute coordinates
M82 ; use absolute distances for extrusion
G92 E0
; Filament gcode
M107
;LAYER_CHANGE
;Z:0.35
;HEIGHT:0.35
G1 E-2 F2400
G1 Z.35 F7800
G1 X12.099 Y20.052
G1 E0 F2400
;TYPE:Skirt/Brim
;WIDTH:0.42
G1 F1800
G1 X15 Y19.328 E.15005
G1 X55 Y19.328 E2.15749
G1 X57.177 Y19.724 E2.26854
G1 X59.365 Y21.135 E2.3992
G1 X89.365 Y51.135 E4.52841
G1 X90.624 Y52.956 E4.63951
G1 X91.172 Y55.5 E4.77011
G1 X91.172 Y74.5 E5.72364
G1 X90.776 Y76.677 E5.83469
G1 X89.636 Y78.575 E5.9458
G1 X87.901 Y79.948 E6.05684
G1 X85 Y80.672 E6.20689
G1 X46 Y80.672 E8.16414
G1 X43.823 Y80.276 E8.27519
G1 X41.783 Y79.008 E8.39573
G1 X10.783 Y50.008 E10.52612
G1 X9.464 Y48.23 E10.63722
G1 X8.828 Y45.5 E10.7779
G1 X8.828 Y25.5 E11.78162
G1 X9.224 Y23.323 E11.89267
G1 X10.364 Y21.425 E12.00378
G1 X12.052 Y20.089 E12.11182
G1 E10.11182 F2400
G92 E0
G1 X12.052 Y20.089 F7800
G92 E0
G1 X46.9 Y56.4
G1 E2 F2400
;TYPE:Perimeter
;WIDTH:0.42
G1 F1800
G1 X84.1 Y56.4 E3.86691
G1 X84.1 Y73.6 E4.73011
G1 X46.9 Y73.6 E6.59702
G1 X46.9 Y56.46 E7.45721
G1 X46.9 Y56.46 F7800
G1 X46.555 Y56.055
G1 F1800
G1 X84.445 Y56.055 E9.35875
G1 X84.445 Y73.945 E10.25658
G1 X46.555 Y73.945 E12.15812
G1 X46.555 Y56.115 E13.05293
G1 X46.555 Y56.115 F7800
G1 X46.21 Y55.71
;TYPE:External perimeter
G1 F1800
G1 X84.79 Y55.71 E14.9891
G1 X84.79 Y74.29 E15.92155
G1 X46.21 Y74.29 E17.85772
G1 X46.21 Y55.77 E18.78716
G1 X46.606 Y55.711 F7800
G1 E16.78716 F2400
G92 E0
G1 X83.997 Y57.206 F7800
G1 E2 F2400
;TYPE:Solid infill
;WIDTH:0.422596
G1 F1800
G1 X83.449 Y56.658 E2.03919
G1 X82.958 Y56.658 E2.06402
G1 X83.842 Y57.542 E2.12723
G1 X83.842 Y58.034 E2.15211
G1 X82.466 Y56.658 E2.2505
G1 X81.975 Y56.658 E2.27533
G1 X83.842 Y58.525 E2.40883
G1 X83.842 Y59.016 E2.43366
G1 X81.484 Y56.658 E2.60228
G1 X80.992 Y56.658 E2.62716
G1 X83.842 Y59.508 E2.83096
G1 X83.842 Y59.999 E2.85579
G1 X80.501 Y56.658 E3.0947
G1 X80.009 Y56.658 E3.11958
G1 X83.842 Y60.491 E3.39367
G1 X83.842 Y60.982 E3.4185
G1 X79.518 Y56.658 E3.7277
G1 X79.026 Y56.658 E3.75258
G1 X83.842 Y61.474 E4.09696
G1 X83.842 Y61.965 E4.12179
G1 X78.535 Y56.658 E4.50128
G1 X78.044 Y56.658 E4.52611
G1 X83.842 Y62.456 E4.94071
G1 X83.842 Y62.948 E4.96559
G1 X77.552 Y56.658 E5.41537
G1 X77.061 Y56.658 E5.4402
G1 X83.842 Y63.439 E5.92509
G1 X83.842 Y63.931 E5.94997
G1 X76.569 Y56.658 E6.47005
G1 X76.078 Y56.658 E6.49488
G1 X83.842 Y64.422 E7.05007
G1 X83.842 Y64.913 E7.0749
G1 X75.587 Y56.658 E7.6652
G1 X75.095 Y56.658 E7.69008
G1 X83.842 Y65.405 E8.31556
G1 X83.842 Y65.896 E8.34039
G1 X74.604 Y56.658 E9.00098
G1 X74.112 Y56.658 E9.02586
G1 X83.842 Y66.388 E9.72163
G1 X83.842 Y66.879 E9.74646
G1 X73.621 Y56.658 E10.47734
G1 X73.129 Y56.658 E10.50222
G1 X83.842 Y67.371 E11.26828
G1 X83.842 Y67.862 E11.29311
G1 X72.638 Y56.658 E12.09428
G1 X72.147 Y56.658 E12.11911
G1 X83.842 Y68.353 E12.95539
G1 X83.842 Y68.845 E12.98027
G1 X71.655 Y56.658 E13.85173
G1 X71.164 Y56.658 E13.87656
G1 X83.842 Y69.336 E14.78314
G1 X83.842 Y69.828 E14.80802
G1 X70.672 Y56.658 E15.74978
G1 X70.181 Y56.658 E15.77461
G1 X83.842 Y70.319 E16.75148
G1 X83.842 Y70.81 E16.77631
G1 X69.69 Y56.658 E17.78829
G1 X69.198 Y56.658 E17.81317
G1 X83.842 Y71.302 E18.86033
G1 X83.842 Y71.793 E18.88516
G1 X68.707 Y56.658 E19.96743
G1 X68.215 Y56.658 E19.99231
G1 X83.842 Y72.285 E21.10976
G1 X83.842 Y72.776 E21.13459
G1 X67.724 Y56.658 E22.28715
G1 X67.232 Y56.658 E22.31203
G1 X83.842 Y73.268 E23.49977
G1 X83.842 Y73.342 E23.50351
G1 X83.424 Y73.342 E23.52465
G1 X66.741 Y56.658 E24.71765
G1 X66.25 Y56.658 E24.74248
G1 X82.933 Y73.342 E25.93548
G1 X82.441 Y73.342 E25.96036
G1 X65.758 Y56.658 E27.15336
G1 X65.267 Y56.658 E27.17819
G1 X81.95 Y73.342 E28.37119
G1 X81.459 Y73.342 E28.39602
G1 X64.775 Y56.658 E29.58906
G1 X64.284 Y56.658 E29.61389
G1 X80.967 Y73.342 E30.80689
G1 X80.476 Y73.342 E30.83172
G1 X63.793 Y56.658 E32.02472
G1 X63.301 Y56.658 E32.0496
G1 X79.984 Y73.342 E33.2426
G1 X79.493 Y73.342 E33.26743
G1 X62.81 Y56.658 E34.46043
G1 X62.318 Y56.658 E34.48531
G1 X79.001 Y73.342 E35.67831
G1 X78.51 Y73.342 E35.70314
G1 X61.827 Y56.658 E36.89614
G1 X61.335 Y56.658 E36.92102
G1 X78.019 Y73.342 E38.11406
G1 X77.527 Y73.342 E38.13894
G1 X60.844 Y56.658 E39.33194
G1 X60.353 Y56.658 E39.35677
G1 X77.036 Y73.342 E40.54977
G1 X76.544 Y73.342 E40.57465
G1 X59.861 Y56.658 E41.76765
G1 X59.37 Y56.658 E41.79248
G1 X76.053 Y73.342 E42.98548
G1 X75.561 Y73.342 E43.01036
G1 X58.878 Y56.658 E44.20336
G1 X58.387 Y56.658 E44.22819
G1 X75.07 Y73.342 E45.42119
G1 X74.579 Y73.342 E45.44602
G1 X57.896 Y56.658 E46.63902
G1 X57.404 Y56.658 E46.6639
G1 X74.087 Y73.342 E47.8569
G1 X73.596 Y73.342 E47.88173
G1 X56.913 Y56.658 E49.07473
G1 X56.421 Y56.658 E49.09961
G1 X73.104 Y73.342 E50.29261
G1 X72.613 Y73.342 E50.31744
G1 X55.93 Y56.658 E51.51044
G1 X55.438 Y56.658 E51.53532
G1 X72.122 Y73.342 E52.72836
G1 X71.63 Y73.342 E52.75324
G1 X54.947 Y56.658 E53.94624
G1 X54.456 Y56.658 E53.97107
G1 X71.139 Y73.342 E55.16407
G1 X70.647 Y73.342 E55.18895
G1 X53.964 Y56.658 E56.38195
G1 X53.473 Y56.658 E56.40678
G1 X70.156 Y73.342 E57.59978
G1 X69.664 Y73.342 E57.62466
G1 X52.981 Y56.658 E58.81766
G1 X52.49 Y56.658 E58.84249
G1 X69.173 Y73.342 E60.03549
G1 X68.682 Y73.342 E60.06032
G1 X51.999 Y56.658 E61.25332
G1 X51.507 Y56.658 E61.2782
G1 X68.19 Y73.342 E62.4712
G1 X67.699 Y73.342 E62.49603
G1 X51.016 Y56.658 E63.68903
G1 X50.524 Y56.658 E63.71391
G1 X67.207 Y73.342 E64.90691
G1 X66.716 Y73.342 E64.93174
G1 X50.033 Y56.658 E66.12474
G1 X49.541 Y56.658 E66.14962
G1 X66.225 Y73.342 E67.34266
G1 X65.733 Y73.342 E67.36754
G1 X49.05 Y56.658 E68.56054
G1 X48.559 Y56.658 E68.58537
G1 X65.242 Y73.342 E69.77837
G1 X64.75 Y73.342 E69.80325
G1 X48.067 Y56.658 E70.99625
G1 X47.576 Y56.658 E71.02108
G1 X64.259 Y73.342 E72.21408
G1 X63.767 Y73.342 E72.23896
G1 X47.158 Y56.733 E73.42663
G1 X47.158 Y57.224 E73.45146
G1 X63.276 Y73.342 E74.60402
G1 X62.785 Y73.342 E74.62885
G1 X47.158 Y57.715 E75.7463
G1 X47.158 Y58.207 E75.77118
G1 X62.293 Y73.342 E76.85345
G1 X61.802 Y73.342 E76.87828
G1 X47.158 Y58.698 E77.92544
G1 X47.158 Y59.19 E77.95032
G1 X61.31 Y73.342 E78.9623
G1 X60.819 Y73.342 E78.98713
G1 X47.158 Y59.681 E79.964
G1 X47.158 Y60.172 E79.98883
G1 X60.328 Y73.342 E80.93059
G1 X59.836 Y73.342 E80.95547
G1 X47.158 Y60.664 E81.86205
G1 X47.158 Y61.155 E81.88688
G1 X59.345 Y73.342 E82.75834
G1 X58.853 Y73.342 E82.78322
G1 X47.158 Y61.647 E83.6195
G1 X47.158 Y62.138 E83.64433
G1 X58.362 Y73.342 E84.4455
G1 X57.87 Y73.342 E84.47038
G1 X47.158 Y62.63 E85.23637
G1 X47.158 Y63.121 E85.2612
G1 X57.379 Y73.342 E85.99208
G1 X56.888 Y73.342 E86.01691
G1 X47.158 Y63.612 E86.71268
G1 X47.158 Y64.104 E86.73756
G1 X56.396 Y73.342 E87.39815
G1 X55.905 Y73.342 E87.42298
G1 X47.158 Y64.595 E88.04846
G1 X47.158 Y65.087 E88.07334
G1 X55.413 Y73.342 E88.66364
G1 X54.922 Y73.342 E88.68847
G1 X47.158 Y65.578 E89.24366
G1 X47.158 Y66.069 E89.26849
G1 X54.431 Y73.342 E89.78857
G1 X53.939 Y73.342 E89.81345
G1 X47.158 Y66.561 E90.29834
G1 X47.158 Y67.052 E90.32317
G1 X53.448 Y73.342 E90.77295
G1 X52.956 Y73.342 E90.79783
G1 X47.158 Y67.544 E91.21243
G1 X47.158 Y68.035 E91.23726
G1 X52.465 Y73.342 E91.61675
G1 X51.973 Y73.342 E91.64163
G1 X47.158 Y68.527 E91.98594
G1 X47.158 Y69.018 E92.01077
G1 X51.482 Y73.342 E92.31997
G1 X50.991 Y73.342 E92.3448
G1 X47.158 Y69.509 E92.61889
G1 X47.158 Y70.001 E92.64377
G1 X50.499 Y73.342 E92.88268
G1 X50.008 Y73.342 E92.90751
G1 X47.158 Y70.492 E93.11131
G1 X47.158 Y70.984 E93.13619
G1 X49.516 Y73.342 E93.30481
G1 X49.025 Y73.342 E93.32964
G1 X47.158 Y71.475 E93.46314
G1 X47.158 Y71.967 E93.48802
G1 X48.534 Y73.342 E93.58638
G1 X48.042 Y73.342 E93.61126
G1 X47.158 Y72.458 E93.67447
G1 X47.158 Y72.949 E93.6993
G1 X47.706 Y73.497 E93.73849
G1 E91.73849 F2400
G92 E0
G1 X47.706 Y73.497 F7800
G1 X54.1 Y44.6
G1 E2 F2400
;TYPE:Perimeter
;WIDTH:0.42
G1 F1800
G1 X15.9 Y44.6 E3.9171
G1 X15.9 Y26.4 E4.83048
G1 X54.1 Y26.4 E6.74758
G1 X54.1 Y44.54 E7.65795
G1 X54.1 Y44.54 F7800
G1 X54.445 Y44.945
G1 F1800
G1 X15.555 Y44.945 E9.60968
G1 X15.555 Y26.055 E10.55769
G1 X54.445 Y26.055 E12.50942
G1 X54.445 Y44.885 E13.45442
G1 X54.445 Y44.885 F7800
G1 X54.79 Y45.29
;TYPE:External perimeter
G1 F1800
G1 X15.21 Y45.29 E15.44078
G1 X15.21 Y25.71 E16.42342
G1 X54.79 Y25.71 E18.40978
G1 X54.79 Y45.23 E19.38941
G1 X54.394 Y45.289 F7800
G1 E17.38941 F2400
G92 E0
G1 X53.997 Y27.206 F7800
G1 E2 F2400
;TYPE:Solid infill
;WIDTH:0.422809
G1 F1800
G1 X53.449 Y26.658 E2.03921
G1 X52.957 Y26.658 E2.0641
G1 X53.842 Y27.543 E2.12742
G1 X53.842 Y28.035 E2.15231
G1 X52.465 Y26.658 E2.25084
G1 X51.974 Y26.658 E2.27568
G1 X53.842 Y28.526 E2.40934
G1 X53.842 Y29.018 E2.43423
G1 X51.482 Y26.658 E2.60309
G1 X50.99 Y26.658 E2.62798
G1 X53.842 Y29.51 E2.83205
G1 X53.842 Y30.002 E2.85694
G1 X50.498 Y26.658 E3.09621
G1 X50.007 Y26.658 E3.12105
G1 X53.842 Y30.493 E3.39545
G1 X53.842 Y30.985 E3.42034
G1 X49.515 Y26.658 E3.72994
G1 X49.023 Y26.658 E3.75483
G1 X53.842 Y31.477 E4.09964
G1 X53.842 Y31.968 E4.12448
G1 X48.532 Y26.658 E4.50442
G1 X48.04 Y26.658 E4.52931
G1 X53.842 Y32.46 E4.94445
G1 X53.842 Y32.952 E4.96934
G1 X47.548 Y26.658 E5.41969
G1 X47.056 Y26.658 E5.44458
G1 X53.842 Y33.444 E5.93013
G1 X53.842 Y33.935 E5.95497
G1 X46.565 Y26.658 E6.47565
G1 X46.073 Y26.658 E6.50054
G1 X53.842 Y34.427 E7.05642
G1 X53.842 Y34.919 E7.08131
G1 X45.581 Y26.658 E7.6724
G1 X45.09 Y26.658 E7.69724
G1 X53.842 Y35.41 E8.32346
G1 X53.842 Y35.902 E8.34835
G1 X44.598 Y26.658 E9.00977
G1 X44.106 Y26.658 E9.03466
G1 X53.842 Y36.394 E9.73129
G1 X53.842 Y36.886 E9.75618
G1 X43.614 Y26.658 E10.48801
G1 X43.123 Y26.658 E10.51285
G1 X53.842 Y37.377 E11.27981
G1 X53.842 Y37.869 E11.3047
G1 X42.631 Y26.658 E12.10686
G1 X42.139 Y26.658 E12.13175
G1 X53.842 Y38.361 E12.96912
G1 X53.842 Y38.852 E12.99396
G1 X41.648 Y26.658 E13.86646
G1 X41.156 Y26.658 E13.89135
G1 X53.842 Y39.344 E14.79905
G1 X53.842 Y39.836 E14.82394
G1 X40.664 Y26.658 E15.76685
G1 X40.172 Y26.658 E15.79174
G1 X53.842 Y40.328 E16.76985
G1 X53.842 Y40.819 E16.79469
G1 X39.681 Y26.658 E17.80793
G1 X39.189 Y26.658 E17.83282
G1 X53.842 Y41.311 E18.88127
G1 X53.842 Y41.803 E18.90616
G1 X38.697 Y26.658 E19.98981
G1 X38.206 Y26.658 E20.01465
G1 X53.842 Y42.294 E21.13343
G1 X53.842 Y42.786 E21.15832
G1 X37.714 Y26.658 E22.3123
G1 X37.222 Y26.658 E22.33719
G1 X53.842 Y43.278 E23.52638
G1 X53.842 Y43.77 E23.55127
G1 X36.73 Y26.658 E24.77566
G1 X36.239 Y26.658 E24.8005
G1 X53.842 Y44.261 E26.06002
G1 X53.842 Y44.342 E26.06412
G1 X53.43 Y44.342 E26.08496
G1 X35.747 Y26.658 E27.35024
G1 X35.255 Y26.658 E27.37513
G1 X52.938 Y44.342 E28.64041
G1 X52.447 Y44.342 E28.66525
G1 X34.763 Y26.658 E29.93057
G1 X34.272 Y26.658 E29.95541
G1 X51.955 Y44.342 E31.22069
G1 X51.463 Y44.342 E31.24558
G1 X33.78 Y26.658 E32.51086
G1 X33.288 Y26.658 E32.53575
G1 X50.971 Y44.342 E33.80103
G1 X50.48 Y44.342 E33.82587
G1 X32.797 Y26.658 E35.09115
G1 X32.305 Y26.658 E35.11604
G1 X49.988 Y44.342 E36.38132
G1 X49.496 Y44.342 E36.40621
G1 X31.813 Y26.658 E37.67149
G1 X31.321 Y26.658 E37.69638
G1 X49.005 Y44.342 E38.9617
G1 X48.513 Y44.342 E38.98659
G1 X30.83 Y26.658 E40.25187
G1 X30.338 Y26.658 E40.27676
G1 X48.021 Y44.342 E41.54204
G1 X47.529 Y44.342 E41.56693
G1 X29.846 Y26.658 E42.83221
G1 X29.355 Y26.658 E42.85705
G1 X47.038 Y44.342 E44.12233
G1 X46.546 Y44.342 E44.14722
G1 X28.863 Y26.658 E45.4125
G1 X28.371 Y26.658 E45.43739
G1 X46.054 Y44.342 E46.70267
G1 X45.563 Y44.342 E46.72751
G1 X27.879 Y26.658 E47.99283
G1 X27.388 Y26.658 E48.01767
G1 X45.071 Y44.342 E49.28295
G1 X44.579 Y44.342 E49.30784
G1 X26.896 Y26.658 E50.57312
G1 X26.404 Y26.658 E50.59801
G1 X44.087 Y44.342 E51.86329
G1 X43.596 Y44.342 E51.88813
G1 X25.913 Y26.658 E53.15341
G1 X25.421 Y26.658 E53.1783
G1 X43.104 Y44.342 E54.44358
G1 X42.612 Y44.342 E54.46847
G1 X24.929 Y26.658 E55.73375
G1 X24.437 Y26.658 E55.75864
G1 X42.121 Y44.342 E57.02396
G1 X41.629 Y44.342 E57.04885
G1 X23.946 Y26.658 E58.31413
G1 X23.454 Y26.658 E58.33902
G1 X41.137 Y44.342 E59.6043
G1 X40.645 Y44.342 E59.62919
G1 X22.962 Y26.658 E60.89447
G1 X22.47 Y26.658 E60.91936
G1 X40.154 Y44.342 E62.18468
G1 X39.662 Y44.342 E62.20957
G1 X21.979 Y26.658 E63.47485
G1 X21.487 Y26.658 E63.49974
G1 X39.17 Y44.342 E64.76502
G1 X38.678 Y44.342 E64.78991
G1 X20.995 Y26.658 E66.05519
G1 X20.504 Y26.658 E66.08003
G1 X38.187 Y44.342 E67.34531
G1 X37.695 Y44.342 E67.3702
G1 X20.012 Y26.658 E68.63548
G1 X19.52 Y26.658 E68.66037
G1 X37.203 Y44.342 E69.92565
G1 X36.712 Y44.342 E69.95049
G1 X19.028 Y26.658 E71.21581
G1 X18.537 Y26.658 E71.24065
G1 X36.22 Y44.342 E72.50593
G1 X35.728 Y44.342 E72.53082
G1 X18.045 Y26.658 E73.7961
G1 X17.553 Y26.658 E73.82099
G1 X35.236 Y44.342 E75.08627
G1 X34.745 Y44.342 E75.11111
G1 X17.062 Y26.658 E76.37639
G1 X16.57 Y26.658 E76.40128
G1 X34.253 Y44.342 E77.66656
G1 X33.761 Y44.342 E77.69145
G1 X16.158 Y26.739 E78.95097
G1 X16.158 Y27.23 E78.97581
G1 X33.27 Y44.342 E80.2002
G1 X32.778 Y44.342 E80.22509
G1 X16.158 Y27.722 E81.41428
G1 X16.158 Y28.214 E81.43917
G1 X32.286 Y44.342 E82.59315
G1 X31.794 Y44.342 E82.61804
G1 X16.158 Y28.706 E83.73682
G1 X16.158 Y29.197 E83.76166
G1 X31.303 Y44.342 E84.84531
G1 X30.811 Y44.342 E84.8702
G1 X16.158 Y29.689 E85.91865
G1 X16.158 Y30.181 E85.94354
G1 X30.319 Y44.342 E86.95678
G1 X29.828 Y44.342 E86.98162
G1 X16.158 Y30.672 E87.95973
G1 X16.158 Y31.164 E87.98462
G1 X29.336 Y44.342 E88.92753
G1 X28.844 Y44.342 E88.95242
G1 X16.158 Y31.656 E89.86012
G1 X16.158 Y32.148 E89.88501
G1 X28.352 Y44.342 E90.75751
G1 X27.861 Y44.342 E90.78235
G1 X16.158 Y32.639 E91.61972
G1 X16.158 Y33.131 E91.64461
G1 X27.369 Y44.342 E92.44677
G1 X26.877 Y44.342 E92.47166
G1 X16.158 Y33.623 E93.23862
G1 X16.158 Y34.115 E93.26351
G1 X26.385 Y44.342 E93.99527
G1 X25.894 Y44.342 E94.02011
G1 X16.158 Y34.606 E94.71674
G1 X16.158 Y35.098 E94.74163
G1 X25.402 Y44.342 E95.40305
G1 X24.91 Y44.342 E95.42794
G1 X16.158 Y35.59 E96.05416
G1 X16.158 Y36.081 E96.079
G1 X24.419 Y44.342 E96.67009
G1 X23.927 Y44.342 E96.69498
G1 X16.158 Y36.573 E97.25086
G1 X16.158 Y37.065 E97.27575
G1 X23.435 Y44.342 E97.79643
G1 X22.943 Y44.342 E97.82132
G1 X16.158 Y37.557 E98.3068
G1 X16.158 Y38.048 E98.33164
G1 X22.452 Y44.342 E98.78199
G1 X21.96 Y44.342 E98.80688
G1 X16.158 Y38.54 E99.22202
G1 X16.158 Y39.032 E99.24691
G1 X21.468 Y44.342 E99.62685
G1 X20.977 Y44.342 E99.65169
G1 X16.158 Y39.523 E99.9965
G1 X16.158 Y40.015 E100.02139
G1 X20.485 Y44.342 E100.33099
G1 X19.993 Y44.342 E100.35588
G1 X16.158 Y40.507 E100.63028
G1 X16.158 Y40.999 E100.65517
G1 X19.501 Y44.342 E100.89437
G1 X19.01 Y44.342 E100.91921
G1 X16.158 Y41.49 E101.12328
G1 X16.158 Y41.982 E101.14817
G1 X18.518 Y44.342 E101.31703
G1 X18.026 Y44.342 E101.34192
G1 X16.158 Y42.474 E101.47558
G1 X16.158 Y42.965 E101.50042
G1 X17.535 Y44.342 E101.59895
G1 X17.043 Y44.342 E101.62384
G1 X16.158 Y43.457 E101.68716
G1 X16.158 Y43.949 E101.71205
G1 X16.706 Y44.497 E101.75126
;LAYER_CHANGE
;Z:0.65
;HEIGHT:0.3
G1 Z.65 F7800
G1 E99.75126 F2400
G92 E0
G1 X16.706 Y44.497 Z.65 F7800
G1 X46.996 Y56.496
G1 E2 F2400
G92 E0
;TYPE:Perimeter
;WIDTH:0.45
G1 F3600
G1 X84.004 Y56.496 E1.77996
G1 X84.004 Y73.504 E2.59799
G1 X46.996 Y73.504 E4.37795
G1 X46.996 Y56.556 E5.19309
G1 X46.996 Y56.556 F7800
G1 X46.611 Y56.111
G1 F3600
G1 X84.389 Y56.111 E7.01008
G1 X84.389 Y73.889 E7.86514
G1 X46.611 Y73.889 E9.68213
G1 X46.611 Y56.171 E10.5343
G1 X46.611 Y56.171 F7800
G1 X46.225 Y55.725
;TYPE:External perimeter
G1 F1800
G1 X84.775 Y55.725 E12.38842
G1 X84.775 Y74.275 E13.28061
G1 X46.225 Y74.275 E15.13473
